X:1
T:Title
%%score 1 2 3
L:1/8
M:3/2
K:C
V:1 treble nm="Part_1"
V:2 treble-8 nm="Part_2"
V:3 treble-8 nm="Part_3"
V:1
 z12 | c4 c4 c4 | B8 B4 | A8 z4 | G4 G4 A4 | B6 c2 _B2 A2 | c4 _B2 A4 G2 | G6 F2 G2 E2 | G4 z4 z4 | %9
 d4 d4 d2 c2 | B4 B4 c4 | d4 e8 | d12 | c4 c4 B4 | c8 z4 | d4 d4 d4 | d4 c2 _B4 A2 | A6 G2 A2 F2 | %18
 A8 z4 | c8 c4- | c4 A8 | G6 A2 G2 F2 | E12 | F8 F2 G2 | A12 | c4 c4 c4 | z12 | A8 A2 A2 | %28
 G8 F2 F2 | E8 D2 D2 | C4 G8 | F8 E4 | F12 | z12 | c4 c4 c4 | B8 B2 B2 | c4 B2 A2 G2 F2 | %37
 E4 G6 F2 | F4 F2 F2 E2 E2 | F8 c4 | c4 d4 e4 | d12 | c4 _B8 | A8 G4 | A4 z4 z4 | _B4 B4 B4 | %46
 _B4 A8 | G8 F4 | G4 z4 G4 | E8 D4 | C4 D6 C2 | C4 B,8 | C8 z4 | F6 G2 E2 D2 | F4 z4 z4 | %55
 A8 A2 A2 | _B8 B4 | A4 z2 _B2 A2 F2 | F4 G6 F2 | F4 E8 | F12 | z12 | c4 c4 c4 | _B4 A6 G2 | %64
 G6 A2 F2 E2 | G6 F2 E2 D2 | D4 G6 F2 | F6 E2 F2 D2 | F4 z4 z4 | _B4 B2 B2 B2 B2 | A12 | z12 | %72
 c4 c4 c4 | G4 A8 | =B12- | B12 | c4 c4 _B2 B2 | A4 z4 z4 | _B4 B4 A2 G2 | A4 z4 z4 | F8 F4 | %81
 E8 E2 E2 | F4 z4 z4 | A4 A4 A4 | z12 | c4 c4 _B4 | A4 z4 z4 | A4 A4 A4 | z12 | F8 F2 F2 | A12 | %91
 c12 | c6 c2 c2 c2 | _B8 A4 | G8 F4 | E8 D4 | C4 G8 | F8 E4 | F4 z4 z4 | F4 F4 G4 | A8 G2 G2 | %101
 F8 z4 | C8 D4 | C8 D2 E2 | F4 z4 z4 | A4 A4 A4 | G6 A2 G2 F2 | A4 z4 A4 | A4 _B8 | A8 G4 | %110
 !fermata!A12 | F4 E2 D2 E4 | A8 A4 | G6 A2 F2 E2 | G4 z4 z4 | c8 _B4 | A4 G6 F2 | E4 G6 F2 | %118
 F6 D2 E4 | F12 || !fermata!c12 | !fermata!B12 | z12 | !fermata!A12 | !fermata!G12 | !fermata!A12 | %126
 z12 | !fermata!G12 | !fermata!F12 | !fermata!E12 | F12 |] %131
V:2
[K:F] f4 f4 f4 | f8 f4 | g12 | f8 z4 | c4 c4 c4 | d8 d4 | c8 B4- | B4 A8 | G12- | G12 | g4 g4 a4 | %11
 f2 f2 g8 | f4 f4 e4- | e4 d4 d4 | c12 | z12 | g4 g4 f4 | f4 e4 e4 | d12 | A12 | A12 | c12- | c12 | %23
 F12- | F12 | z12 | f4 f4 f4 | F4 F4 F4 | c4 c4 d4 | c8 B2 B2 | A4 B8 | A8 G4 | F8 z4 | f4 f4 f4 | %34
 c8 c2 c2 | d12 | c12- | c4 c4 c2 c2 | c4 c2 c2 c2 c2 | F12- | F12 | z12 | g4 f8 | e8 d4 | %44
 e4 e4 e4 | d12 | G4 c4 c4 | B8 A4 | G12 | c4 c4 B4 | A4 G4 A4 | A4 G8 | F12 | c4 c4 B4 | c12 | %55
 c4 c4 c4 | g8 g4 | c12 | z2 c2 d8 | c4 A4 G4 | F12 | f4 f4 f4 | z12 | d4 c8 | B8 A4 | G12 | %66
 B8 A4 | A4 G8 | F12 | G12 | d4 d2 d2 d2 d2 | f12 | z12 | e4 f2 f2 f2 e2 | d12 | g4 g4 g2 e2 | %76
 c4 z4 z4 | d4 d4 B2 B2 | G4 z4 z4 | F4 F4 F4 | z4 z4 F2 F2 | c12 | F12 | z12 | f4 f4 f4 | %85
 c4 c4 d4 | A12 | z12 | d4 d4 d4 | z12 | A8 c2 c2 | f12 | F12 | G4 G2 G2 G4 | z12 | g8 f4 | e8 c4 | %97
 F4 G8 | F12 | z12 | f4 f4 g4 | a8 g2 g2 | e8 f4 | g8 a4 | d4 e4 f4 | z4 z4 d4 | B4 c4 d2 B2 | %107
 A12 | F4 G8 | F8 E4 | F12 | A4 A2 A2 G4 | F12 | c4 c2 c2 A2 A2 | G12 | f8 d4 | c4 B6 A2 | c8 B4 | %118
 A4 G8 | F12 || !fermata!f12 | !fermata!d12 | z12 | !fermata!c12 | !fermata!B12 | !fermata!F12 | %126
 z12 | !fermata!B12 | !fermata!A12 | !fermata!G12 | F12 |] %131
V:3
[K:F] F12- | F8 A4 | G12 | d12 | z4 z4 A4 | G8 f4 | z2 g4 e4 f2- | f2 d4 e4 c2 | d12 | g12 | %10
 G8 F4 | z2 G2 c8 | d8 g4 | g4 G8 | g12 | G12 | G8 d4- | d4 c8 | f12 | e12 | e12- | e12 | A12 | %23
 c12- | c12 | F12- | F12 | c12 | e8 d2 B2 | A8 G4 | F4 G8 | c8 B4 | c4 c4 c4 | F8 F4 | c4 g8 | %35
 G12 | g6 f2 e4 | g4 e6 d2 | A6 G2 A2 B2 | c12 | z12 | g8 f4 | e4 d8 | c8 B4 | A8 c4 | G12 | %46
 d4 e8 | d8 c4 | d4 e2 d2 c2 B2 | A8 G4 | f4 g4 e4 | f4 g2 f2 e4 | f4 g2 f2 e2 d2 | c2 A4 B2 G4 | %54
 F12- | F12 | G12 | F12 | A4 G8 | A4 c2 c2 B4 | c12 | F12 | f12 | f4 e8 | d8 c4 | d4 B6 A2 | %66
 G6 B2 c4- | c4 d4 B4 | c4 f2 d2 f2 e2 | d4 d4 d4 | z12 | d8 B2 A2 | F12 | c4 F4 c4 | G12- | G12 | %76
 g4 f4 e2 d2 | f12 | z4 d4 c2 B2 | A4 c8 | F8 c4 | A6 G2 A2 B2 | c12 | A12 | F12 | z12 | c4 e8 | %87
 d8 d4 | G8 G4 | F12- | F12 | F12 | f12 | d12 | G8 A4 | z12 | g4 e8 | c4 B8 | c12 | F8 B4 | A8 G4 | %101
 F8 c4 | z12 | e8 f2 g2 | a6 g2 d4 | A8 F4 | G4 z2 f2 d4 | e8 e4 | f4 d8 | c8 G4 | !fermata!c12 | %111
 c8 =B4 | c12 | e6 d2 c4 | d12 | z12 | e6 d2 c4 | A4 B2 c4 d2 | c4 B8 | c12 || F12 | G12 | z12 | %123
 e12 | d12 | c12 | z12 | d12 | c12 | B12 | c12 |] %131

